X:1
T:Title
%%score { ( 1 4 ) | ( 2 3 ) }
L:1/8
M:6/8
K:Eb
V:1 treble nm="Grand Piano"
V:4 treble 
V:2 bass 
V:3 bass 
V:1
 z3 z2[Q:1/4=95] [GB] | [GB]2 [GB] [EG]2 [GB] | [Ge]3 [GB]3 | [Ac]3 [Ae]3 | [Ac]3 [GB]2 [GB] | %5
 [GB]2 [GB] [EG]2 [GB] | [Ge]3 [Ge]2 [Gd] | [=Ac]2 [Ac] edc |[M:5/8] B-B- B3 |[M:1/8] [B,AB] | %10
[M:3/4] [B,EG]2 [B,GB] [Ge]2 [Ge] | [GB]4- [GB][EG] | [DF]2 [EG] [FA]2 [DF] | [EG]4- [EG][GB] | %14
 [EG]2 [GB] [Ge]2 [Ge] | [EGB]4- [EGB][CEA] | [B,EG]3 [A,DF]3 |[M:5/8] [G,B,E]-[G,B,E]- [G,B,E]3 |] %18
V:2
 z3 z2 [E,E] | [E,E]2 [E,E] [E,B,]2 [E,B,] | [E,B,]3 [E,E]3 | [A,E]3 [A,C]3 | [E,E]3 [E,E]2 [E,E] | %5
 [E,E]2 [E,E] [E,B,]2 [E,E] | [E,B,]3 [E,B,]2 [E,E] | z3 .C3 |[M:5/8] F,2 z z2 |[M:1/8] B,, | %10
[M:3/4] E,2 E, [E,B,]2 [E,B,] | [E,E]4- [E,E][E,B,] | [B,,B,]2 [B,,B,] [B,,B,]2 [B,,B,] | %13
 [E,B,]4- [E,B,][E,B,] | [E,B,]2 [E,B,] [E,B,]2 [E,B,] | E,4- E,A,, | B,,3 B,,3 | %17
[M:5/8] E,-E,- E,3 |] %18
V:3
 x6 | x6 | x6 | x6 | x6 | x6 | x6 | [F,E]2 [F,E] [F,F]-[F,B,F][F,=A,E] | %8
[M:5/8] B,,2- [B,,-G,] [B,,A,]2 |[M:1/8] x |[M:3/4] x6 | x6 | x6 | x6 | x6 | x6 | x6 |[M:5/8] x5 |] %18
V:4
 x6 | x6 | x6 | x6 | x6 | x6 | x6 | x6 |[M:5/8] D2 E F2 |[M:1/8] x |[M:3/4] x6 | x6 | x6 | x6 | %14
 x6 | x6 | x6 |[M:5/8] x5 |] %18

